src/icons/export-address-book.svg

<svg viewBox="0 0 24 24" fill="none" xmlns="http://www.w3.org/2000/svg">
<path d="M12.988 4.45348L5.50214 3.12932L11.4344 2.08765C13.6148 1.69923 14.9478 2.61731 14.9831 4.53293L14.9919 5.11556C14.4446 4.81541 13.7825 4.59472 12.988 4.45348Z" fill="currentColor"/>
<path fill-rule="evenodd" clip-rule="evenodd" d="M12.5555 21.9412L2.81851 20.2286C1.62677 20.0167 1 19.3017 1 18.1188V5.91888C1 4.54176 1.94457 3.75609 3.33052 3.99444L12.7673 5.66288C14.6388 5.9895 15.5393 6.70455 15.5393 8.54954V11.5262C13.4527 12.4657 12 14.5632 12 17C12 18.9287 12.91 20.6448 14.324 21.7424C13.8514 21.9911 13.2541 22.0649 12.5555 21.9412ZM4.03673 8.59368C4.03673 8.94679 4.23094 9.21162 4.57523 9.26459L11.4079 10.474C11.8757 10.5446 12.1847 10.2533 12.1847 9.82956C12.1847 9.44114 11.9905 9.22927 11.6286 9.15865L4.84006 7.96691C4.37219 7.88746 4.03673 8.16995 4.03673 8.59368ZM4.03673 12.213C4.03673 12.5662 4.23977 12.8222 4.57523 12.8839L11.4079 14.1022C11.8757 14.1728 12.1847 13.8815 12.1847 13.4401C12.1847 13.0693 11.9905 12.8575 11.6286 12.7868L4.84006 11.5951C4.37219 11.5157 4.03673 11.7981 4.03673 12.213Z" fill="currentColor"/>
<path fill-rule="evenodd" clip-rule="evenodd" d="M23 17C23 14.6624 21.3776 12.6931 19.2106 12.1493L18.9744 12.096C18.8465 12.0705 18.7169 12.05 18.5873 12.0344C18.4659 12.0197 18.3428 12.0098 18.2198 12.0049L18 12C17.7851 12 17.5719 12.0139 17.3635 12.0418C17.1617 12.0689 16.9649 12.1074 16.7713 12.1583C14.6339 12.7177 13 14.6903 13 17C13 19.7362 15.2638 22 18 22C20.7461 22 23 19.7362 23 17ZM17.5276 14.0768L16.8698 14.6862L16.6106 14.9257L15.9495 15.5392L15.9364 15.5515L15.8609 15.6212L15.7051 15.7656L15.2835 16.1552L14.9783 16.439L14.9685 16.448C14.8274 16.5743 14.7618 16.7187 14.7618 16.9016C14.7618 17.2362 15.0177 17.502 15.3622 17.4823C15.4147 17.479 15.4672 17.47 15.5164 17.456C15.5673 17.4413 15.6148 17.4208 15.6608 17.3953C15.6936 17.3765 15.7231 17.356 15.7526 17.3322L15.7822 17.3068L15.8051 17.2854L16.2037 16.8868L16.417 16.6744L16.75 16.3406L16.9288 16.1568L17.3422 15.7303L17.3898 15.6811L17.3881 15.7287L17.357 16.5251L17.3406 16.9139V19.5394C17.3406 19.8839 17.6358 20.1791 17.9902 20.1791C18.3445 20.1791 18.6398 19.8839 18.6398 19.5394V16.9311L18.5922 15.7287L18.5906 15.6811L18.6398 15.7303L19.2402 16.3406L19.5781 16.6818L19.7799 16.886L19.8241 16.9311L19.875 16.9811L20.1752 17.2854L20.2014 17.31L20.2326 17.3371C20.2605 17.3593 20.2884 17.3798 20.3196 17.3986C20.4131 17.4544 20.5213 17.4888 20.628 17.4823C20.9724 17.4823 21.248 17.2362 21.2283 16.9016C21.2218 16.7802 21.1955 16.676 21.1365 16.5825C21.107 16.5349 21.0692 16.4906 21.0217 16.448L21.0118 16.439L20.628 16.0822L20.541 16.001L20.3655 15.8386L20.2753 15.7533L20.1325 15.6204L20.0472 15.5417L19.3714 14.9126L19.1106 14.6706L18.4724 14.0768C18.2953 13.9094 18.1575 13.8406 17.9902 13.8406C17.8228 13.8406 17.6949 13.9193 17.5276 14.0768Z" fill="currentColor"/>
</svg>

<svg viewBox="0 0 24 24" fill="none" xmlns="http://www.w3.org/2000/svg"><path d="M12.988 4.453 5.502 3.13l5.932-1.041c2.18-.389 3.514.53 3.55 2.445l.008.583c-.547-.3-1.21-.521-2.004-.663z" fill="currentColor"/><path fill-rule="evenodd" clip-rule="evenodd" d="M12.556 21.941 2.819 20.23C1.627 20.017 1 19.302 1 18.119v-12.2c0-1.377.945-2.163 2.33-1.925l9.437 1.669c1.872.326 2.772 1.042 2.772 2.887v2.976a6.001 6.001 0 0 0-1.215 10.216c-.473.25-1.07.323-1.768.2zM4.036 8.594c0 .353.195.618.54.67l6.832 1.21c.468.07.777-.22.777-.644 0-.389-.194-.6-.556-.671L4.84 7.967c-.468-.08-.803.203-.803.627zm0 3.619c0 .353.204.61.54.67l6.832 1.22c.468.07.777-.221.777-.663 0-.37-.194-.582-.556-.653L4.84 11.595c-.468-.08-.803.203-.803.618z" fill="currentColor"/><path fill-rule="evenodd" clip-rule="evenodd" d="M23 17c0-2.338-1.622-4.307-3.79-4.85l-.236-.054a5.1 5.1 0 0 0-.754-.091L18 12a4.803 4.803 0 0 0-1.229.158C14.634 12.718 13 14.69 13 17c0 2.736 2.264 5 5 5 2.746 0 5-2.264 5-5zm-5.472-2.923-.658.61-.26.239-.66.613-.014.013-.075.07-.156.144-.421.39-.306.283-.01.009a.574.574 0 0 0-.206.454c0 .334.256.6.6.58a.692.692 0 0 0 .39-.15l.03-.025.023-.022.399-.398.213-.213.333-.333.179-.184.413-.427.048-.049-.002.048-.031.796-.016.389v2.625c0 .345.295.64.65.64.354 0 .649-.295.649-.64v-2.608l-.048-1.202-.001-.048.049.05.6.61.338.34.202.205.044.045.051.05.3.304.026.025.032.027a.81.81 0 0 0 .087.062c.093.055.201.09.308.083.344 0 .62-.246.6-.58a.642.642 0 0 0-.091-.32.618.618 0 0 0-.115-.134l-.01-.009-.384-.357-.087-.081-.175-.162-.09-.086-.143-.133-.086-.078-.676-.63-.26-.241-.639-.594c-.177-.168-.315-.236-.482-.236-.167 0-.295.078-.462.236z" fill="currentColor"/></svg>
